X:1
T:Title
%%score { ( 1 3 ) | 2 }
L:1/8
M:4/4
K:Eb
V:1 treble nm="Grand Piano"
V:3 treble 
V:2 bass 
V:1
 z4 z2[Q:1/4=88] [EG]>[FA] | [GB]>[GB] [GB]>[GB] [Ge]<[Ge] G>F | z2 C>=B, _B,2 G>[FA] | %3
 [GB]>[GB] [GB]>[GB] [Ge]<[Ge] G>_G | z2 F4 z2 | [DFA]>[DFA] [DFA]>[DFA] [Fd]>[Ac] [GB]>[FA] | %6
 G>G G>B e>e B>B | =A>B [Ac]>[Fd] [Ae]2 d>c |[M:15/8] z2 d-d/ z/ f2 f3- f z2 z3 | %9
[M:4/4] z4 [Ge]2 z2 | E2 E2 E4 | D2 [B,DF]2 [B,FA]2 [FAd]2 | [EGc]2 [B,EG]2 [EGB]4 | [Ge]2 e2 z4 | %14
 [Ge]2 [Ae]2[K:bass][K:treble] z4 | [EGe]4 [DAd]4 |[M:3/4] [Ge]6 |] %17
V:2
 z4 z2 [E,B,]>[E,B,] | [E,E]>[E,E] [E,E]>[E,E] [E,B,]<[E,B,] z2 | %2
 z2 [E,A,]>[E,_G,] [E,=G,]2 [E,B,E]>[E,B,] | [E,E]>[E,E] [E,E]>[E,E] [E,B,]<[E,B,] z2 | %4
 z2 [D,B,]>[C,=A,] [B,,B,]2 [B,,B,]>[B,,B,] | B,,>B,, B,,>B,, [B,,B,]>[B,,B,] [B,,B,]>[B,,B,] | %6
 [E,B,E]>[E,B,E] [E,B,E]>[F,B,D] [G,B,E]>[G,B,E] [G,B,E]>[G,B,E] | %7
 [F,CE]>[F,DF] [F,E]>[F,D] [F,C]2[K:treble] [F,B,F]>[F,=A,F] | %8
[M:15/8] [B,F]>[B,F][B,F]-[B,F]/[B,CF]/[K:bass] [B,,B,DA]2- [B,,B,DA]3- [B,,B,DA] z2 z3 | %9
[M:4/4] [E,B,]2 [E,C]2 [E,B,]2 z2 | [E,G,B,]2 [E,A,C]2 [E,G,B,]4 | [F,B,]2 B,,2 D,2 B,,2 | %12
 E,2 E,2 E,4 | .[E,B,]2 .[F,B,G]2 [_D,B,]4 | .[C,A,]2 .[_D,A,]2 [=B,,=A,]4 | [B,,B,]4 [B,,B,]4 | %16
[M:3/4] [E,B,]6 |] %17
V:3
 x8 | x8 | E6 z2 | x8 | F2 z z/ E/ D2 [DF]>[EG] | x8 | x8 | x8 | %8
[M:15/8] d3/2.d3/2 (5:4:5z3/4 .e3/4 z3/4 B3/4d3/4 (5:4:4z3/4 B3/4 d2- d/4-df/Bd/ f3 | %9
[M:4/4] [Ae]2 [Ae]2 z d/c/ B/A/G/F/ | x8 | x8 | x8 | z G, z E, [Ge]4 | %14
 z E, z[K:bass] C,[K:treble] [_Ge]4 | x8 |[M:3/4] x6 |] %17

